!!!COM: Vivaldi, Antonio Lucio
!!!CDT: 1678/03/04-1741/08/28
!!!OPR: 12 Sonatas for Violin and Basso continuo
!!!OTL: Sonata in D minor, op. @{OPS}, no. @{ONM} (@{SCT})
!!!OPS: 2
!!!ONM: 3
!!!OMV: 4. Giga
!!!SCT: RV 14
!!!SCA: Antonio Vivaldi: Thematisch-systematisches Verzeichnis seiner Werke (Ryom-Verzeichnis)
!!!OMD: Allegro
!!!key: d
**kern	**fb	**kern
*part2	*	*part1
*staff2	*	*staff1
*ICklav	*	*ICstr
*Icemba	*	*Ivioln
*I"Basso continuo	*	*I"Violino
*I'bc	*	*I'v
*>[A,A,B,B]	*>[A,A,B,B]	*>[A,A,B,B]
*>norep[A,B]	*>norep[A,B]	*>norep[A,B]
*>A	*>A	*>A
*clefF4	*	*clefG2
*k[b-]	*	*k[b-]
*d:	*	*d:
*M12/8	*	*M12/8
*MM232	*	*MM232
=1	=1	=1
4.D\	.	(8dd\L
.	.	8ee\
.	.	8ff\J)
4.C#X/	6	(8ee\L
.	.	8ff\
.	.	8gg\J)
4.D\	.	(8ff\L
.	.	8gg\
.	.	8aa\J)
4.E\	6#/	(4.gg\T
=2	=2	=2
4.F\	.	(8aa\L
.	.	8gg\
.	.	8ff\J
4.G\	6	8ee\L
.	.	8ff\
.	5	8dd\J)
4.A\	3	(8cc#X\L
.	.	8bn\
.	.	8a\J)
4.C#X/	6	8r
.	.	8aa\L
.	.	8gg\J
=3	=3	=3
2.D\	3	(8ff#X\L
.	.	8gg\
.	.	8aa\J)
.	.	(8ff#X\L
.	.	8ee\
.	.	8dd\J)
4.G\	6-r	(8ee-X\L
.	.	8dd\
.	.	8ee-y\J)
4.Fn\	7-r	(8ee-X\L
.	.	8dd\
.	.	8ee-y\J)
=4	=4	=4
4.E-X\	5	(8gg\L
.	.	8ff#X\
.	.	8gg\J)
4.D\	6 4	(8gg\L
.	.	8ff#X\
.	.	8gg\J)
2.C#X/	7	[4.bb-y\
.	6	.
.	.	8bb-y\L]
.	.	(8aa\
.	.	8gg\J
!!LO:LB:g=original
=5	=5	=5
4.D\	#	8ff#X\L
.	.	8ee\
.	.	8dd\J
4.F#X\	5	8cc\L
.	.	8b-y\
.	.	8a\J)
4.G\	.	(8b-y/L
.	.	8a/
.	.	8g/J)
4r	.	(8gg\L
.	.	8aa\
8r	.	8bb-y\J)
=6	=6	=6
4.B-y\	6	(8gg\L
.	.	8aa\
.	.	8ffn\J
4.E\	6	8cc\L
.	.	8dd\
.	.	8b-y\J)
4.F\	.	(8a/L
.	.	8g/
.	.	8f/J)
4r	.	(8ff\L
.	.	8gg\
8r	.	8aa\J)
=7	=7	=7
2.D\	.	(8ff\L
.	.	8gg\
.	.	8ee\J
.	.	8dd\L
.	.	8ee\
.	.	8cc\J)
2.D\	6nr	(8bn\L
.	.	8dd\
.	.	8cc\J
.	.	8bn\L
.	.	8cc\
.	.	8a\J)
=8	=8	=8
4.GG#X/	6	(8e\L
.	.	8ee\
.	.	8dd\J
4.AA/	.	8cc\L
.	.	8bn\
.	.	8a\J)
4.GG#X/	6	(8e\L
.	.	8ee\
.	.	8dd\J
4.AA/	.	8cc\L
.	.	8bn\
.	.	8a\J)
!!LO:LB:g=original
=9	=9	=9
4.GG#X/	6	(8e\L
.	.	8ee\
.	.	8dd\J
4.AA/	.	8cc\L
.	.	8bn\
.	.	8a\J)
4.E\	6 4	8e/L
.	.	8a/
.	.	8bn/J
4.EE/	5 #	8e/L
.	.	8a/
.	.	8g#X/J
=10	=10	=10
4.AA/	.	(8a\L
.	.	8ee\
.	.	8dd\J
4.A\	.	8cc\L
.	.	8bn\
.	.	8a\J)
4.G#X\	6	(8e\L
.	.	8ee\
.	.	8dd\J
4.A\	.	8cc\L
.	.	8bn\
.	.	8a\J)
=11	=11	=11
4.G#X\	6	(8e\L
.	.	8ee\
.	.	8dd\J
4.A\	.	8cc\L
.	.	8bn\
.	.	8a\J)
4.e\	6 4	8e/L
.	.	8a/
.	.	8bn/J
4.E\	5 3	8e/L
.	.	8a/
.	.	8g#X/J
=12	=12	=12
2.AA/	.	8a/L
.	.	8e/
.	.	8a/J
.	.	8c/L
.	.	8e/
.	.	8c/J
2.AA/	.	2.A/
=13:|!|:	=13:|!|:	=13:|!|:
*>B	*>B	*>B
2.AA/	#	(8a\L
.	.	8bn\
.	.	8cc#X\J)
.	.	(8cc#y\L
.	.	8dd\
.	.	8ee\J)
2.C#X/	5	(8ee\L
.	.	8ff\
.	.	8gg\J)
.	.	(8gg\L
.	.	8ff\
.	.	8ee\J)
!!LO:LB:g=original
=14	=14	=14
2.D\	#	(8d/L
.	.	8e/
.	.	8f#X/J)
.	.	(8f#y/L
.	.	8g/
.	.	8a/J)
2.F#X\	5	(8a\L
.	.	8b-y\
.	.	8cc\J)
.	.	(8cc\L
.	.	8b-y\
.	.	8a\J)
=15	=15	=15
2.G\	.	(8b-y/L
.	.	8a/
.	.	8g/J)
.	.	(8b-y\L
.	.	8cc\
.	.	8dd\J)
4.c\	-	(8ee-X\L
.	.	8dd\
.	.	8ee-y\J)
4.Fn\	7-r	(8cc\L
.	.	8dd\
.	.	8ee-X\J)
=16	=16	=16
4.B-y\	.	(8dd\L
.	.	8cc\
.	.	8b-y\J)
4.A\	6	(8ff\L
.	.	8gg\
.	.	8aa\J)
4.G\	.	(8bb-y\L
.	.	8aa\
.	.	8bb-y\J)
4.C/	7 5	(8gg\L
.	.	8aa\
.	.	8bb-y\J)
=17	=17	=17
4.F\	.	(8aa\L
.	.	8gg\
.	.	8ff\J)
4F\	.	(8a\L
.	.	8ff\
8r	.	8aa\J)
4G\	7	(8b-y\L
.	.	8ff\
8r	.	8aa\J)
4A\	6	(8cc\L
.	.	8ff\
8r	.	8aa\J)
!!LO:LB:g=original
=18	=18	=18
4B-y\	.	(8dd\L
.	.	8ff\
8r	.	8aa\J)
4F\	.	(8a\L
.	.	8ff\
8r	.	8aa\J)
4G\	7	(8b-y\L
.	.	8ff\
8r	.	8aa\J)
4A\	6	(8cc\L
.	.	8ff\
8r	.	8aa\J)
=19	=19	=19
4B-y\	.	(8dd\L
.	.	8ff\
8r	.	8aa\J)
4F\	.	(8a\L
.	.	8ff\
8r	.	8aa\J)
4G\	7	(8b-y\L
.	.	8ff\
8r	.	8gg\J)
4c\	.	(8cc\L
.	.	8ff\
8r	.	8ee\J)
=20	=20	=20
2.F\	.	(8ff\L
.	.	8aa\
.	.	8gg\J
.	.	8ff\L
.	.	8gg\
.	.	8ee\J)
2.B-y\	5	(8dd\L
.	.	8bb-y\
.	.	8aa\J
.	6	8gg\L
.	.	8aa\
.	.	8ff\J)
=21	=21	=21
2.G\	6	(8ee\L
.	.	8gg\
.	.	8ff\J
.	.	8ee\L
.	.	8ff\
.	5	8dd\J)
4.A\	#	4cc#X\
.	.	8a/
4.F\	.	(8a\L
.	.	8bn\
.	.	8ccn\J)
!!LO:LB:g=original
=22	=22	=22
2.G\	5	(8bn\L
.	.	8cc\
.	.	8dd\J
.	6	8ee\L
.	.	8ff\
.	.	8gg\J)
2.A\	#	(8cc#X\L
.	.	8dd\
.	.	8ee\J
.	.	8ff\L
.	.	8gg\
.	.	8aa\J)
=23	=23	=23
[4.B-X\	5	(8dd\L
.	.	8ee\
.	.	8ff\J
4B-y\]	6	8gg\L
.	.	8aa\
8A\	.	8bb-y\J)
4G\	6-r	(8ee-X\L
.	.	8dd\
8F\	.	8ee-y\J)
4E-X\	.	(8gg\L
.	.	8ff#X\
8D\	.	8gg\J)
=24	=24	=24
[4.C#X/	7	[4.bb-y\
4C#y/]	.	8bb-y\L]
.	.	(8aa\
8C#y/	5	8gg\J
4D\	.	8ff\L
.	.	8ee\
8G\	.	8dd\J)
4A\	6 4	(8a\L
.	.	8dd\
8AA/	5 #	8cc#X\J)
=25	=25	=25
4.D\	.	(8dd\L
.	.	8ee\
.	.	8ff\J)
4.C#X/	5	(8ee\L
.	.	8ff\
.	.	8gg\J)
4.D\	.	(8ff\L
.	.	8gg\
.	.	8aa\J)
4.E\	6#/	(4.gg\T
!!LO:LB:g=original
=26	=26	=26
4.F\	6	(8aa\L
.	.	8gg\
.	.	8ff\J
4.G\	6	8ee\L
.	.	8ff\
.	5	8dd\J)
4.C#X/	6	(8a\L
.	.	8aa\
.	.	8gg\J
4.D\	.	8ff\L
.	.	8ee\
.	.	8dd\J)
=27	=27	=27
4.C#X/	6	(8a\L
.	.	8aa\
.	.	8gg\J
4.D\	.	8ff\L
.	.	8ee\
.	.	8dd\J)
4.C#X/	6	(8a\L
.	.	8aa\
.	.	8gg\J
4.D\	.	8ff\L
.	.	8ee\
.	.	8dd\J)
=28	=28	=28
4.A\	#	(8cc#X\L
.	.	8a\
.	.	8cc#y\J)
4.D\	.	(8dd\L
.	.	8a\
.	.	8dd\J)
4.A\	6 4	(8f/L
.	.	8a/
.	.	8dd/J)
4.AA/	5 #	(8e/L
.	.	8a/
.	.	8cc#X/J)
=29	=29	=29
[2.D\	.	(8dd\L
.	.	8a\
.	.	8dd\J)
.	.	(8ff\L
.	.	8dd\
.	.	8ff\J)
2.D\_	.	(8aa\L
.	.	8ff\
.	.	8aa\J)
.	.	(8ff\L
.	.	8dd\
.	.	8ff\J)
=30	=30	=30
2.D\_	.	(8dd\L
.	.	8a\
.	.	8dd\J)
.	.	(8a/L
.	.	8f/
.	.	8a/J)
2.D\];	.	2.d/;
=:|!	=:|!	=:|!
*-	*-	*-
!!!SMS: RV 14 / Estienne Roger, Amsterdam [facs.]
!!!ENC: Fran Bennion; rev. 04/21 E. Correia
!!!END: 2004/11/24
!!!ONB: Converted from MuseData with musedata2hum on Sat May 11 12:07:51 2024
!!!YEM: (C) 2004, 2004 Center for Computer Assisted Research in the Humanities.
!!!system-decoration: [(s1,s2)]
!!!URL-info: https://wiki.ccarh.org/wiki/MuseData:_Antonio_Vivaldi#Op._2:_Sonate_a_violino_e_basso_per_il_cembalo
!!!URL-pdf: https://pdf.musedata.org/vivaldi-op02-no03.pdf#page=4 MuseData edition
!!!URL-pdf: http://conquest.imslp.info/files/imglnks/usimg/b/b7/IMSLP99075-PMLP183164-Vivaldi_-_Sonatas_Op2.pdf#page=12 Estienne Roger Amsterdam: Estienne Roger, No.2, n.d.[1711].
!!!URL-youtube: https://www.youtube.com/watch?v=SiijZmW9jKM&t=849s L'Arte dell'Arco
!!!title: @{OTL}, mov. @{OMV}
!!!filter-chint: chint -mid
!!!EEV: 2024/05/11
!!!source-file: https://bitbucket.org/musedata/vivaldi/src/master/roger/op2/no03/stage2/04/01
!!!source-file: https://bitbucket.org/musedata/vivaldi/src/master/roger/op2/no03/stage2/04/02
